!!!OTL: 827. Brittes Kilt-Lied.
!!!ARE: Europa, Mitteleuropa, Deutschland, Schweiz
!!!SCT: E0827
!!!TXL: @@GSW
!!!YEM: Copyright 1995, estate of Helmut Schaffrath.
**kern	**text
*ICvox	*
*M2/4	*
*k[b-e-]	*
*B-:	*
!LO:TX:a:t=Schweiʒer Kuhreihen u. Volkslieder. Bern 1812, S. 39.	!
{16b-L	Es
16ccJ	.
=1	=1
8dd	iſch
8b-	es
8b-	Meitſchi
16ccL	.
16ddJ	in
=2	=2
8ee-	die-
8cc	-ſem
8cc}	Ʒwing,
{16b-L	's
16ddJ	hett
=3	=3
8dd	al-
8b-	-li
8b-	Nacht
16cc	drei
16dd	.
=4	=4
8ee-	Chil-
8cc	-ter
8cc	in.
(8eeq	.
8ff)	(Ja
=5	=5
4cc	wohl!)
8r}	.
{8dd	Das
=6	=6
8ee-	ſin
8cc	drei
8dd	ſtol-
8b-	-ʒe
=7	=7
4cc	Gſel-
8cc}	-le;
{8dd	hei
=8	=8
8ee-	d's_Vre-
8dd	-ne-
8cc	-li
8dd	nit
=9	=9
4b-	wel-
8b-}	-le
{8b-	Ver-
=10	=10
4cc	-ſteihſt
8b-	du
8a	mi
=11	=11
4.b-;}	wohl?
==	==
!!!AGN: Kilt - Lied
!!!ONB: ESAC (Essen Associative Code) Database: ERK2
!!!AMT: simple duple
!!!AIN: vox
!!!EED: Helmut Schaffrath
!!!EEV: 1.0
!!!GTL: Tagelieder und Kiltgesaenge
!!!URL-scan: https://rosdok.uni-rostock.de/mcrviewer/recordIdentifier/rosdok_ppn745177662/iview2/phys_0636.iview2?x=115.65719516421564&y=59.79707531351596&scale=0.7029437510502773&rotation=0&layout=singlePageLayout
!!!ENC: Anna Maria Matuszewska
!!!EEV: 2024/12/18
*-	*-
